SVG/search.svg

<?xml version="1.0" encoding="utf-8"?>
<!-- Generated by IcoMoon.io -->
<!DOCTYPE svg PUBLIC "-//W3C//DTD SVG 1.1//EN" "http://www.w3.org/Graphics/SVG/1.1/DTD/svg11.dtd">
<svg version="1.1" xmlns="http://www.w3.org/2000/svg" xmlns:xlink="http://www.w3.org/1999/xlink" width="13" height="14" viewBox="0 0 13 14">
<path fill="#444444" d="M9 6.5q0-1.445-1.027-2.473t-2.473-1.027-2.473 1.027-1.027 2.473 1.027 2.473 2.473 1.027 2.473-1.027 1.027-2.473zM13 13q0 0.406-0.297 0.703t-0.703 0.297q-0.422 0-0.703-0.297l-2.68-2.672q-1.398 0.969-3.117 0.969-1.117 0-2.137-0.434t-1.758-1.172-1.172-1.758-0.434-2.137 0.434-2.137 1.172-1.758 1.758-1.172 2.137-0.434 2.137 0.434 1.758 1.172 1.172 1.758 0.434 2.137q0 1.719-0.969 3.117l2.68 2.68q0.289 0.289 0.289 0.703z"></path>
</svg>

<svg xmlns="http://www.w3.org/2000/svg" viewBox="0 0 13 14"><path d="M9 6.5q0-1.445-1.027-2.473T5.5 3 3.027 4.027 2 6.5t1.027 2.473T5.5 10t2.473-1.027T9 6.5zm4 6.5q0 .406-.297.703T12 14q-.422 0-.703-.297l-2.68-2.672Q7.22 12 5.5 12q-1.117 0-2.137-.434t-1.758-1.172T.433 8.636 0 6.5.432 4.36t1.172-1.758 1.758-1.172T5.5.998t2.137.434 1.758 1.172 1.172 1.758T11 6.5q0 1.718-.968 3.116l2.68 2.68q.29.29.29.703z" /></svg>
